X: 1
T: The Longford Collector
R: reel
M: 4/4
L: 1/8
K: Gmaj
G3A Bcdg|e~B3 eBdB|~G3A B2dB|ABBA GEDE|
~G3A Bcdg|e~B3 d2ef|~g3f gedB|ABBA GEDE|
G3A Bcdg|e~B3 eBdB|~G3A B2dB|ABBA GEDE|
~G3A Bcdg|e~B3 d2ef|~g3f gedB|ABBA GEED||
~g3f gedg|e~B3 d2ef|~g2gf gedB|ABBA GEED|
~g3f gedg|e~B3 d2ef|gbaf gedB|ABBA GEED|
~g2gf gedg|e~B3 d2ef|~g3g gedB|ABBA GEED|
~g3f gedg|e~B3 d2ef|gbaf gedB|ABBA GEDE||


Tune 563	Setting 25156

